X:109
T:The Weaver Lad
Z:Jack Campin - http://www.campin.me.uk
S:Blaikie MS (NLS MS.1578) p32, Blaikie #103
M:2/4
L:1/8
V:1 midi program 1 74
V:2 midi program 1 46 bass middle = d transpose -24
Q:1/4=88
K:D
[V:1] A|dA`dc |BA`A>A|dA`dc   |B2 A>A|
[V:2] z|d2 f2 |g2 f2 |d2 f2   |g2 f2 |
%
[V:1]   dA`dc |BA`dB |AF EF/A/|B2 B ||
[V:2]   d2 f2 |g2 fg |a2 f2   |g2 g ||
%
[V:1] d|A2 A>B|AF`DF |A2 d>A  |B2 A>A|
[V:2] z|d2 d2 |d2 d2 |d2 f2   |g2 f2 |
%
[V:1]   dA`dc |BA`dB |AF E/F/A|B2 A |]
[V:2]   d2 f2 |g2 fg |a2 f2   |g2 d |]
W:Transcription (c) Jack Campin 2009, no mirroring or republication without permission

